X:1
T:Title
%%score 1 2 3 4
L:1/8
Q:1/4=92
M:4/4
K:Eb
V:1 treble nm="Church Organ, Church Organ"
V:2 treble nm="French Horn, French Horn"
V:3 bass nm="Trombone, Trombone"
V:4 bass nm="Tuba, Tuba"
V:1
 E4 G4 | B4 B4 | G4 E4 | F4 G4 | E4 B4 | B4 c4 | d4 e2 d2 | c4 B4 | B4 G4 | B4 c4 | B4 A4 | G4 F4 | %12
w: By~Melody~by~D.~Vetter,~c.~1713 *||||||||||||
 B4 G2 A2 | B4 A4 | G2 F2 E4 | F4 E4 |] %16
w: ||||
V:2
 B,4 E4 | E4 D4 | D4 D2 C2 | B,4 B,4 | B,4 E4 | F4 G2 =A2 | B4 B4- | B2 =A2 F4 | F4 F2 ED | E4 E4 | %10
 E4 F2 B,2 | B,2 E2 E2 D2 | F4 E4 | E4 E4 | D4 C2 E2- | E2 D2 E4 |] %16
V:3
 G,4 B,4 | B,4 F,4 | G,4 G,4 | F,4 E,4 | G,4 G,4 | B,4[K:treble] E4 | D4 G4 | C4 D4 | B,4 B,4 | %9
w: O~ hap|py~ day,~|when~ first~|was~ poured~|The~ blood~|of~ our~|re deem|ing~ Lord!~|O~ hap|
 B,4 B,2 A,2 | A,2 G,2 F,4 | G,3 A, B,4 | B,4 B,4 | B,4 C4 | B,2 A,2 G,4 | B,3 A, G,4 |] %16
w: py~ day,~ *|when~ * first~|be * gan~|His~ suf|fer ings~|for~ * sin|ful~ * man!~|
V:4
 E,4 E,4 | G,,2 A,,2 B,,4 | =B,,4 C,4 | D,4 E,4 | E,4 E,4- | E,2 D,2 C,4 | G,2 F,2 E,4 | F,4 B,,4 | %8
 D,4 E,4 | G,2 E,2 C,4 | E,4 E,2 D,2 | E,4 B,,4 | D,4 E,4 | G,,4 A,,4 | B,,4 C,4 | B,,4 E,4 |] %16

